X: 1686
T: the Pride of the Parish
R: hornpipe, reel
%S: s:2 b:16(6+6)
B: O'Neill's 1850 #1686
O: F.O'Neill
M: 4/4
L: 1/8
K: G
(GA) | B>AGE DEGA | T(BA)GB A2(GA) |\
[1,3   B>AGE DEGA | BGAF G2 :|\
[2,4   Bdde  dBGB | AGEF G2 :|
|:   (GA)  | B>cde  dBAG  | (3(ABc) de d2 \
[1,3 (BA)  | B>cde  dBGB  | AGEF G2 :|\
[2,4 (3def | g>ag>e d>BGB | AGEF G2 :|
